Papirus-GTK/24x24/apps/gmail-offline.svg

<?xml version="1.0" encoding="UTF-8" standalone="no"?>
<svg
   xmlns:dc="http://purl.org/dc/elements/1.1/"
   xmlns:cc="http://creativecommons.org/ns#"
   xmlns:rdf="http://www.w3.org/1999/02/22-rdf-syntax-ns#"
   xmlns:svg="http://www.w3.org/2000/svg"
   xmlns="http://www.w3.org/2000/svg"
   xmlns:sodipodi="http://sodipodi.sourceforge.net/DTD/sodipodi-0.dtd"
   xmlns:inkscape="http://www.inkscape.org/namespaces/inkscape"
   width="24"
   height="24"
   viewBox="0 0 24 24"
   version="1.1"
   preserveAspectRatio="xMidYMid"
   id="svg2"
   inkscape:version="0.91 r13725"
   sodipodi:docname="gmail-offline.svg">
  <metadata
     id="metadata33">
    <rdf:RDF>
      <cc:Work
         rdf:about="">
        <dc:format>image/svg+xml</dc:format>
        <dc:type
           rdf:resource="http://purl.org/dc/dcmitype/StillImage" />
        <dc:title></dc:title>
      </cc:Work>
    </rdf:RDF>
  </metadata>
  <sodipodi:namedview
     pagecolor="#ffffff"
     bordercolor="#666666"
     borderopacity="1"
     objecttolerance="10"
     gridtolerance="10"
     guidetolerance="10"
     inkscape:pageopacity="0"
     inkscape:pageshadow="2"
     inkscape:window-width="1600"
     inkscape:window-height="849"
     id="namedview31"
     showgrid="false"
     inkscape:zoom="11.420324"
     inkscape:cx="0.93653543"
     inkscape:cy="6.5849452"
     inkscape:window-x="0"
     inkscape:window-y="30"
     inkscape:window-maximized="1"
     inkscape:current-layer="svg2" />
  <defs
     id="defs4">
    <linearGradient
       x1="1.3210427"
       y1="127.76156"
       x2="211.76385"
       y2="127.76156"
       id="linearGradient-1"
       gradientTransform="matrix(0.09442676,0,0,0.06431376,1.9831095,4.9999978)"
       gradientUnits="userSpaceOnUse">
      <stop
         stop-color="#000000"
         stop-opacity="0.1"
         offset="0%"
         id="stop7" />
      <stop
         stop-color="#000000"
         stop-opacity="0.2"
         offset="100%"
         id="stop9" />
    </linearGradient>
  </defs>
  <g
     id="g4170">
    <path
       d="m 20.75,19.999998 -17.4999999,0 c -0.6785714,0 -1.25,-0.548349 -1.25,-1.238208 l 0,-12.5235845 c 0,-0.67217 0.5535714,-1.2382075 1.25,-1.2382075 l 17.4999999,0 c 0.678571,0 1.25,0.548349 1.25,1.2382075 L 22,18.76179 c 0,0.689859 -0.553572,1.238208 -1.25,1.238208 l 0,0 z"
       id="path13"
       inkscape:connector-curvature="0"
       style="fill:#e3e3e3" />
    <path
       d="M 4.4988951,19.982413 11.969915,14.056271 12.023407,13.73974 4.3205891,8.270807 4.3027585,19.718638 4.4988951,19.982413 Z"
       id="path15"
       inkscape:connector-curvature="0"
       style="opacity:0.1;fill:#231f20" />
    <path
       sodipodi:nodetypes="ssssscscs"
       id="path17"
       d="m 3.2439976,5.4921874 c -0.6082952,0 -1.10667,0.095277 -1.2196626,0.5820311 C 2.008575,6.1421085 2,6.217812 2,6.3017575 L 2,18.769531 C 2,19.455346 2.5508606,20 3.2439976,20 L 5,20 5,7.1013495 C 5,7.0178215 4.99111,6.941609 4.974692,6.8738105 4.8616974,6.387059 3.8522914,5.4921873 3.2439976,5.4921874 Z"
       style="fill:#4f8cf6;fill-opacity:1"
       inkscape:connector-curvature="0" />
    <path
       sodipodi:nodetypes="ssccssss"
       id="path21"
       d="M 20.724609,5.4746074 C 20.029216,5.4746074 19,6.1621854 19,6.848 L 19,19.98242 19,20 20.724609,20 C 21.420003,20 22,19.455346 22,18.769531 L 22,6.248047 C 22,5.562232 21.420003,5.4746094 20.724609,5.4746074 Z"
       style="fill:#4f8cf6;fill-opacity:1"
       inkscape:connector-curvature="0" />
    <path
       sodipodi:nodetypes="cccccssc"
       d="M 15,20 2,8 2.8049885,7.075027 l 9.2362485,6.559203 9.931642,-7.1823505 0,12.3171685 C 21.972879,19.437279 21.42013,20 20.724737,20 Z"
       id="path25"
       style="fill:url(#linearGradient-1)"
       inkscape:connector-curvature="0" />
    <path
       id="path4161"
       d="M 20.78125,5.0058594 A 1.50015,1.50015 0 0 0 20.078125,5.3164062 L 12,11.599609 3.921875,5.3164062 A 1.5002492,1.5002492 0 0 0 3.15625,5.0097656 C 2.5053958,5.0586881 2,5.5971473 2,6.2382812 l 0,1.3789063 a 1.5002492,1.5002492 0 0 0 0.078125,0.066406 l 9,7.0000005 a 1.50015,1.50015 0 0 0 1.84375,0 l 9,-7.0000005 A 1.50015,1.50015 0 0 0 22,7.6191406 L 22,6.2382812 C 22,5.5595713 21.445329,5.0231918 20.78125,5.0058594 Z"
       style="color:#000000;font-style:normal;font-variant:normal;font-weight:normal;font-stretch:normal;font-size:medium;line-height:normal;font-family:sans-serif;text-indent:0;text-align:start;text-decoration:none;text-decoration-line:none;text-decoration-style:solid;text-decoration-color:#000000;letter-spacing:normal;word-spacing:normal;text-transform:none;direction:ltr;block-progression:tb;writing-mode:lr-tb;baseline-shift:baseline;text-anchor:start;white-space:normal;clip-rule:nonzero;display:inline;overflow:visible;visibility:visible;opacity:1;isolation:auto;mix-blend-mode:normal;color-interpolation:sRGB;color-interpolation-filters:linearRGB;solid-color:#000000;solid-opacity:1;fill:#4f8cf6;fill-opacity:1;fill-rule:evenodd;stroke:none;stroke-width:3;stroke-linecap:round;stroke-linejoin:round;stroke-miterlimit:4;stroke-dasharray:none;stroke-dashoffset:0;stroke-opacity:1;color-rendering:auto;image-rendering:auto;shape-rendering:auto;text-rendering:auto;enable-background:accumulate"
       inkscape:connector-curvature="0" />
    <path
       id="path4175"
       d="m 2,18.261717 0,0.5 c 0,0.689858 0.5714286,1.238281 1.25,1.238281 l 17.5,0 c 0.696428,0 1.25,-0.548423 1.25,-1.238281 l 0,-0.5 c 0,0.689858 -0.553572,1.238281 -1.25,1.238281 l -17.5,0 C 2.5714286,19.499998 2,18.951575 2,18.261717 Z"
       style="opacity:0.3;fill:#000000;fill-opacity:1"
       inkscape:connector-curvature="0" />
    <path
       id="path4180"
       d="M 3.25,4.999998 C 2.5535715,4.999998 2,5.5661095 2,6.238279 l 0,0.5 C 2,6.0661095 2.5535715,5.499998 3.25,5.499998 l 17.5,0 c 0.678571,0 1.25,0.548423 1.25,1.238281 l 0,-0.5 C 22,5.548421 21.428571,4.999998 20.75,4.999998 l -17.5,0 z"
       style="opacity:0.1;fill:#ffffff;fill-opacity:1"
       inkscape:connector-curvature="0" />
  </g>
</svg>

<?xml version="1.0" encoding="UTF-8" standalone="no"?>
<svg id="svg2" xmlns:rdf="http://www.w3.org/1999/02/22-rdf-syntax-ns#" xmlns="http://www.w3.org/2000/svg" viewBox="0 0 24 24" width="24" version="1.1" preserveAspectRatio="xMidYMid" xmlns:cc="http://creativecommons.org/ns#" height="24" xmlns:dc="http://purl.org/dc/elements/1.1/">
 <metadata id="metadata33">
  <rdf:RDF>
   <cc:Work rdf:about="">
    <dc:format>image/svg+xml</dc:format>
    <dc:type rdf:resource="http://purl.org/dc/dcmitype/StillImage"/>
    <dc:title/>
   </cc:Work>
  </rdf:RDF>
 </metadata>
 <path id="path13" fill="#ccc" d="m20.75 20h-17.5c-0.67857 0-1.25-0.54835-1.25-1.2382v-12.524c0-0.67217 0.55357-1.2382 1.25-1.2382h17.5c0.67857 0 1.25 0.54835 1.25 1.2382v12.524c0 0.68986-0.55357 1.2382-1.25 1.2382z"/>
 <path id="path17" fill="#4f8cf6" d="m3.244 5.4922c-0.6083 0-1.1067 0.095277-1.2197 0.58203-0.0157 0.0679-0.0243 0.1436-0.0243 0.2276v12.468c0 0.685 0.5509 1.23 1.244 1.23h1.756v-12.899c0-0.0832-0.0089-0.1594-0.0253-0.2272-0.113-0.4867-1.1224-1.3816-1.7307-1.3816z"/>
 <path id="path21" fill="#4f8cf6" d="m20.725 5.4746c-0.696 0-1.725 0.6876-1.725 1.3734v13.134 0.018h1.725c0.695 0 1.275-0.545 1.275-1.23v-12.522c0-0.6858-0.58-0.7734-1.275-0.7734z"/>
 <path id="path4161" style="color-rendering:auto;text-decoration-color:#000000;color:#000000;isolation:auto;mix-blend-mode:normal;shape-rendering:auto;solid-color:#000000;block-progression:tb;text-decoration-line:none;text-decoration-style:solid;image-rendering:auto;white-space:normal;text-indent:0;text-transform:none" d="m20.781 5.0059a1.5002 1.5002 0 0 0 -0.703 0.3105l-8.078 6.2836-8.0781-6.2836a1.5002 1.5002 0 0 0 -0.7657 -0.3066c-0.6508 0.0489-1.1562 0.5873-1.1562 1.2285v1.3789a1.5002 1.5002 0 0 0 0.078125 0.066406l9 7a1.5002 1.5002 0 0 0 1.8438 0l9-7a1.5002 1.5002 0 0 0 0.078 -0.0649v-1.3808c0-0.6787-0.555-1.2151-1.219-1.2324z" fill-rule="evenodd" fill="#4f8cf6"/>
 <path id="path4175" opacity=".2" d="m2 18.762v0.5c0 0.69 0.5714 1.238 1.25 1.238h17.5c0.69643 0 1.25-0.54842 1.25-1.2383v-0.5c0 0.69-0.554 1.238-1.25 1.238h-17.5c-0.6786 0-1.25-0.548-1.25-1.238z"/>
 <path id="path4180" opacity=".1" d="m3.25 5c-0.6964 0-1.25 0.5661-1.25 1.2383v0.5c0-0.6722 0.5536-1.2383 1.25-1.2383h17.5c0.67857 0 1.25 0.54842 1.25 1.2383v-0.5c0-0.6899-0.571-1.2383-1.25-1.2383h-17.5z" fill="#fff"/>
</svg>
